X: 1
T: Antigonish Polka, The
M: 4/4
L: 1/8
G: Angigonish Polkas
K: Dmaj
|:FG| "D"A2 f2 fedB | A2 AB AGFA | d2 cd b2a2 | "A7"g2-ga gfed |
c2 c2 cB A2| "D"dcde defg | "A7"a2 ^ga b2 c2 | "D"d6 :|
|: FG| "D"A2 A2 BAFA | f4f2FG | A2 A2 A2 BAFA  | f2>A2 fagf |
"A7"eagf edcB | Aagf edcB | (3ABA ^GA BAFA | "D"d6 :|
